status/symbolic/battery-low-symbolic.svg

<?xml version="1.0" encoding="UTF-8" standalone="no"?>
<!-- Created with Inkscape (http://www.inkscape.org/) -->

<svg
   xmlns:dc="http://purl.org/dc/elements/1.1/"
   xmlns:cc="http://creativecommons.org/ns#"
   xmlns:rdf="http://www.w3.org/1999/02/22-rdf-syntax-ns#"
   xmlns:svg="http://www.w3.org/2000/svg"
   xmlns="http://www.w3.org/2000/svg"
   xmlns:inkscape="http://www.inkscape.org/namespaces/inkscape"
   version="1.1"
   width="16"
   height="16"
   id="svg3004">
  <defs
     id="defs3006" />
  <metadata
     id="metadata3009">
    <rdf:RDF>
      <cc:Work
         rdf:about="">
        <dc:format>image/svg+xml</dc:format>
        <dc:type
           rdf:resource="http://purl.org/dc/dcmitype/StillImage" />
        <dc:title />
      </cc:Work>
    </rdf:RDF>
  </metadata>
  <path
     d="M 1,3 C 0.446,3 0,3.446 0,4 l 0,8 c 0,0.554 0.446,1 1,1 l 12,0 c 0.554,0 1,-0.446 1,-1 l 0,-2 1,0 c 0.554,0 1,-0.446 1,-1 L 16,7 C 16,6.446 15.554,6 15,6 L 14,6 14,4 C 14,3.446 13.554,3 13,3 L 1,3 z m 0.5,1 11,0 C 12.777,4 13,4.223 13,4.5 l 0,7 c 0,0.277 -0.223,0.5 -0.5,0.5 l -11,0 C 1.223,12 1,11.777 1,11.5 l 0,-7 C 1,4.223 1.223,4 1.5,4 z M 2.25,5 C 2.1115,5 2,5.1115 2,5.25 l 0,5.5 C 2,10.8885 2.1115,11 2.25,11 l 4.5,0 C 6.8885,11 7,10.8885 7,10.75 L 7,5.25 C 7,5.1115 6.8885,5 6.75,5 L 2.25,5 z M 14,7 14.5,7 C 14.777,7 15,7.223 15,7.5 l 0,1 C 15,8.777 14.777,9 14.5,9 L 14,9 14,7 z"
     inkscape:connector-curvature="0"
     id="rect3206"
     style="color:#bebebe;fill:#bebebe;fill-opacity:1;fill-rule:nonzero;stroke:none;stroke-width:1;marker:none;visibility:visible;display:inline;overflow:visible;enable-background:accumulate" />
</svg>

<?xml version="1.0" encoding="UTF-8" standalone="no"?>
<!-- Created with Inkscape (http://www.inkscape.org/) -->

<svg
   xmlns:dc="http://purl.org/dc/elements/1.1/"
   xmlns:cc="http://creativecommons.org/ns#"
   xmlns:rdf="http://www.w3.org/1999/02/22-rdf-syntax-ns#"
   xmlns:svg="http://www.w3.org/2000/svg"
   xmlns="http://www.w3.org/2000/svg"
   xmlns:sodipodi="http://sodipodi.sourceforge.net/DTD/sodipodi-0.dtd"
   xmlns:inkscape="http://www.inkscape.org/namespaces/inkscape"
   version="1.1"
   width="16"
   height="16"
   id="svg3004"
   inkscape:version="0.48.4 r9939"
   sodipodi:docname="battery-low-symbolic.svg">
  <sodipodi:namedview
     pagecolor="#ffffff"
     bordercolor="#666666"
     borderopacity="1"
     objecttolerance="10"
     gridtolerance="10"
     guidetolerance="10"
     inkscape:pageopacity="0"
     inkscape:pageshadow="2"
     inkscape:window-width="640"
     inkscape:window-height="480"
     id="namedview8"
     showgrid="false"
     inkscape:zoom="14.75"
     inkscape:cx="8"
     inkscape:cy="8"
     inkscape:window-x="0"
     inkscape:window-y="28"
     inkscape:window-maximized="0"
     inkscape:current-layer="svg3004" />
  <defs
     id="defs3006" />
  <metadata
     id="metadata3009">
    <rdf:RDF>
      <cc:Work
         rdf:about="">
        <dc:format>image/svg+xml</dc:format>
        <dc:type
           rdf:resource="http://purl.org/dc/dcmitype/StillImage" />
        <dc:title />
      </cc:Work>
    </rdf:RDF>
  </metadata>
  <path
     style="color:#bebebe;fill:#bebebe;fill-opacity:1;fill-rule:nonzero;stroke:none;stroke-width:1;marker:none;visibility:visible;display:inline;overflow:visible;enable-background:accumulate"
     d="M 1 3 C 0.446 3 0 3.446 0 4 L 0 12 C 0 12.554 0.446 13 1 13 L 13 13 C 13.554 13 14 12.554 14 12 L 14 10 L 15 10 C 15.554 10 16 9.554 16 9 L 16 7 C 16 6.446 15.554 6 15 6 L 14 6 L 14 4 C 14 3.446 13.554 3 13 3 L 1 3 z M 1.5 4 L 12.5 4 C 12.777 4 13 4.223 13 4.5 L 13 11.5 C 13 11.777 12.777 12 12.5 12 L 1.5 12 C 1.223 12 1 11.777 1 11.5 L 1 4.5 C 1 4.223 1.223 4 1.5 4 z M 2.25 5 C 2.1115 5 2 5.1115 2 5.25 L 2 10.75 C 2 10.8885 2.1115 11 2.25 11 L 6.75 11 C 6.8885 11 7 10.8885 7 10.75 L 7 5.25 C 7 5.1115 6.8885 5 6.75 5 L 2.25 5 z M 14 7 L 14.5 7 C 14.777 7 15 7.223 15 7.5 L 15 8.5 C 15 8.777 14.777 9 14.5 9 L 14 9 L 14 7 z "
     id="rect3206" />
</svg>
